packages/icons/src/assets/raw/outlined/SVG/outlined-navigation-home.svg

<svg xmlns="http://www.w3.org/2000/svg" viewBox="0 0 24 24">
  <path d="M17.19 20h-2.68a1 1 0 01-1-1v-2.49a1.59 1.59 0 10-3.18 0V19a1 1 0 01-1 1H6.8a1 1 0 01-.72-.3 1.06 1.06 0 01-.28-.7v-5.67H4.5a1 1 0 01-1-1v-1.05a1.52 1.52 0 01.22-.65l.11-.13 6.92-5.61a1.8 1.8 0 012.21 0l7.12 5.62a1.15 1.15 0 01.4.79v1.05a1 1 0 01-1 1h-1.3V19a1 1 0 01-.99 1zm-5.27-6a2.6 2.6 0 012.59 2.59V19h2.67v-5.66a1 1 0 011-1h1.32v-1l-7.16-5.67a.8.8 0 00-1 0l-6.8 5.55a.65.65 0 000 .13v1h1.27a1 1 0 011 1V19h2.52v-2.49a2.61 2.61 0 012.59-2.59z"/>
</svg>

<svg xmlns="http://www.w3.org/2000/svg" viewBox="0 0 24 24">
  <title>outlined-navigation-home</title>
  <g>
    <rect width="24" height="24" style="opacity: 0"/>
    <path d="M17.19,20H14.51a1,1,0,0,1-1-1V16.51a1.59,1.59,0,1,0-3.18,0V19a1,1,0,0,1-1,1H6.8a1,1,0,0,1-.72-.3A1.06,1.06,0,0,1,5.8,19V13.33H4.5a1,1,0,0,1-1-1V11.28a1.52,1.52,0,0,1,.22-.65l.11-.13,6.92-5.61a1.8,1.8,0,0,1,2.21,0l7.12,5.62a1.15,1.15,0,0,1,.4.79v1.05a1,1,0,0,1-1,1H18.18V19A1,1,0,0,1,17.19,20Zm-5.27-6a2.6,2.6,0,0,1,2.59,2.59V19h2.67V13.34a1,1,0,0,1,1-1h1.32v-1L12.34,5.67a.8.8,0,0,0-1,0L4.54,11.22a.65.65,0,0,0,0,.13v1H5.81a1,1,0,0,1,1,1V19H9.33V16.51A2.61,2.61,0,0,1,11.92,13.92Z"/>
  </g>
</svg>
